assets/azureentraidentityriskyusers/original.svg

<svg height="18" viewBox="0 0 18 18" width="18" xmlns="http://www.w3.org/2000/svg"><path d="m10.312 3.991a3.52 3.52 0 0 1 -3.491 3.553 3.52 3.52 0 0 1 -3.553-3.491 3.52 3.52 0 0 1 3.491-3.553h.031a3.506 3.506 0 0 1 3.522 3.49" fill="#59b4d9"/><path d="m17.389 16.353-1.789-3.011-1.787-3.1a.628.628 0 0 0 -1.129 0l-1.784 2.912-1.787 3.2a.66.66 0 0 0 .564 1.035h7.15a.659.659 0 0 0 .564-1.035zm-4.045-4.234h.471l-.189 2.728h-.752l-.094-2.728zm-.094 4.139a.565.565 0 1 1 .565-.564.564.564 0 0 1 -.565.564" fill="#ff8c00"/><path d="m8.468 17.411a1.37 1.37 0 0 1 -.176-.705 1.5 1.5 0 0 1 .208-.706l1.783-3.19.007-.013.007-.012 1.783-2.915a1.4 1.4 0 0 1 1-.681v-.509h-3.715l-2.575 3.577-2.575-3.577h-3.715v8.82h8.026q-.03-.043-.058-.089" fill="#59b4d9"/></svg>

<svg xmlns="http://www.w3.org/2000/svg" id="e5449b4d-4c3e-45ed-9bc4-a969a16851b4" width="18" height="18" viewBox="0 0 18 18"><path fill="#59b4d9" d="M10.312 3.991a3.52 3.52 0 0 1-3.491 3.553 3.52 3.52 0 0 1-3.553-3.491A3.52 3.52 0 0 1 6.759.5h.031a3.506 3.506 0 0 1 3.522 3.49"/><path fill="#ff8c00" d="M17.389 16.353 15.6 13.342l-1.787-3.1a.628.628 0 0 0-1.129 0L10.9 13.154l-1.787 3.2a.66.66 0 0 0 .564 1.035h7.15a.659.659 0 0 0 .564-1.035Zm-4.045-4.234h.471l-.189 2.728h-.752l-.094-2.728Zm-.094 4.139a.565.565 0 1 1 .565-.564.564.564 0 0 1-.565.564"/><path fill="#59b4d9" d="M8.468 17.411a1.37 1.37 0 0 1-.176-.705A1.5 1.5 0 0 1 8.5 16l1.783-3.19.007-.013.007-.012L12.08 9.87a1.4 1.4 0 0 1 1-.681V8.68H9.365L6.79 12.257 4.215 8.68H.5v8.82h8.026q-.03-.043-.058-.089"/></svg>
